lib/healthicons/icons/outline/typography/B.svg

<svg fill="none" height="48" viewBox="0 0 48 48" width="48" xmlns="http://www.w3.org/2000/svg"><path clip-rule="evenodd" d="m13 12c0-1.6569 1.3431-3 3-3h10c4.9706 0 9 4.0294 9 9 0 2.3051-.8675 4.4085-2.2917 6 1.4242 1.5915 2.2917 3.6949 2.2917 6 0 4.9706-4.0294 9-9 9h-10c-.7957 0-1.5587-.3161-2.1213-.8787s-.8787-1.3256-.8787-2.1213zm3-1c-.5523 0-1 .4477-1 1v24c0 .2652.1054.5196.2929.7071s.4419.2929.7071.2929h10c3.866 0 7-3.134 7-7 0-2.0906-.9152-3.9661-2.3701-5.2503-.2151-.1898-.3383-.4628-.3383-.7497s.1232-.5599.3383-.7497c1.4549-1.2842 2.3701-3.1597 2.3701-5.2503 0-3.866-3.134-7-7-7zm1 3c0-.5523.4477-1 1-1h8c2.7614 0 5 2.2386 5 5s-2.2386 5-5 5h-8c-.5523 0-1-.4477-1-1zm2 1v6h7c1.6569 0 3-1.3431 3-3s-1.3431-3-3-3zm-2 11c0-.5523.4477-1 1-1h8c2.7614 0 5 2.2386 5 5s-2.2386 5-5 5h-8c-.5523 0-1-.4477-1-1zm2 1v6h7c1.6569 0 3-1.3431 3-3s-1.3431-3-3-3z" fill="#333" fill-rule="evenodd"/></svg>

<svg width="48" height="48" viewBox="0 0 48 48" fill="none" xmlns="http://www.w3.org/2000/svg">
<path fill-rule="evenodd" clip-rule="evenodd" d="M13 12C13 10.3431 14.3431 9 16 9L26 9C30.9706 9 35 13.0294 35 18C35 20.3051 34.1325 22.4085 32.7083 24C34.1325 25.5915 35 27.6949 35 30C35 34.9706 30.9706 39 26 39H16C15.2043 39 14.4413 38.6839 13.8787 38.1213C13.3161 37.5587 13 36.7957 13 36L13 12ZM16 11C15.4477 11 15 11.4477 15 12L15 36C15 36.2652 15.1054 36.5196 15.2929 36.7071C15.4804 36.8946 15.7348 37 16 37H26C29.866 37 33 33.866 33 30C33 27.9094 32.0848 26.0339 30.6299 24.7497C30.4148 24.5599 30.2916 24.2869 30.2916 24C30.2916 23.7131 30.4148 23.4401 30.6299 23.2503C32.0848 21.9661 33 20.0906 33 18C33 14.134 29.866 11 26 11L16 11ZM17 14C17 13.4477 17.4477 13 18 13L26 13C28.7614 13 31 15.2386 31 18C31 20.7614 28.7614 23 26 23L18 23C17.4477 23 17 22.5523 17 22L17 14ZM19 15L19 21L26 21C27.6569 21 29 19.6569 29 18C29 16.3431 27.6569 15 26 15L19 15ZM17 26C17 25.4477 17.4477 25 18 25L26 25C28.7614 25 31 27.2386 31 30C31 32.7614 28.7614 35 26 35H18C17.4477 35 17 34.5523 17 34L17 26ZM19 27L19 33H26C27.6569 33 29 31.6569 29 30C29 28.3431 27.6569 27 26 27L19 27Z" fill="#333333"/>
</svg>
